X:1
T:Title
%%score { ( 1 3 ) | ( 2 4 ) }
L:1/8
M:4/4
K:Bb
V:1 treble nm="Grand Piano"
V:3 treble 
V:2 bass 
V:4 bass 
V:1
 z4 z2[Q:1/4=94] [DF][DB] | [Fd]2 [Fd][=E_d] [F=d] [DB]2 [FB] | [Gc]2 [GB]G F2 FB | %3
 A2 AB c c2 [FA] | [FB]2 [FB][Fc] [Fd]2 [DF][DB] | [Fd]2 [Fd][=E_d] [F=d] [DB]2 [FB] | %6
 [Gc]2 [GB][EG] [DF]2 [DF][D^F] | G2 BG F B2 c |[M:7/8] d d2 c [DB]3 |[M:1/4] [DF][DB] | %10
[M:4/4] A2 AB c c2 =B | c6[K:bass][K:treble] z2 | [DB]2 [DB][Ec] [Fd] [Fd]2 [=E_d] | %13
 [Fd]6 [DF][DB] | [^FB] [FA]2 [F_A] [F=A]2 [FB][FA] | [GA] G2 G B2 AG | %16
[M:9/8] F2 B BBB- B2 c[Q:1/4=93][Q:1/4=91][Q:1/4=90][Q:1/4=88][Q:1/4=87][Q:1/4=85][Q:1/4=84] | %17
[M:3/4][Q:1/4=82] d d2 c [DB]2[Q:1/4=81][Q:1/4=79][Q:1/4=78][Q:1/4=76][Q:1/4=75][Q:1/4=73][Q:1/4=72] |] %18
V:2
 z4 z2 [B,,B,][B,,B,] | [B,,B,]2 [B,,B,][B,,B,] [B,,B,] [B,,B,]2 [D,B,] | %2
 [E,E]2 [E,E][G,B,E] [B,D]2 [B,D][B,D] | [F,CE]2 [F,CE][F,B,E] [F,A,E] [F,A,E]2 [E,C] | %4
 [D,B,]2 [D,B,][C,A,] [B,,B,]2 [B,,B,][B,,B,] | [B,,B,]2 [B,,B,][B,,B,] [B,,B,] [B,,B,]2 [D,B,] | %6
 [E,E]2 [E,E][E,B,] [B,,B,]2 [B,,B,][B,,B,] | [E,B,E]2 [E,G,E][E,B,E] [B,D] [G,B,E]2 [^F,B,E] | %8
[M:7/8] [F,B,F] [F,G,F]2 [F,A,E] [B,,B,]3 |[M:1/4] [B,,B,][B,,B,] | %10
[M:4/4] [F,CE]2 [F,CE][F,B,D] [F,A,E] [F,A,E]2 [F,_A,D] | [A,E]6 z2 | %12
 [B,,B,]2 [B,,B,][B,,B,] [B,,B,] [B,,B,]2 [B,,B,] | [B,,B,]6 [B,,B,][B,,B,] | %14
 [D,C] [D,C]2 [D,=B,] [D,C]2 [D,D][D,C] | [E,B,] [E,B,]2 [E,B,E] [=E,G,_D]2 [E,A,D][E,B,D] | %16
[M:9/8] [F,B,D]2 [_A,B,D] [A,B,D][G,B,E][G,B,E]- [G,B,E]2 [^F,B,E] | %17
[M:3/4] [F,B,F] [F,G,F]2 [F,A,E] [B,,B,]2 |] %18
V:3
 x8 | x8 | x8 | x8 | x8 | x8 | x8 | x8 |[M:7/8] x7 |[M:1/4] x2 |[M:4/4] x8 | %11
 z2[K:bass] F,G, F,E,[K:treble]F[EF] | x8 | x8 | x8 | x8 |[M:9/8] x9 |[M:3/4] x6 |] %18
V:4
 x8 | x8 | x8 | x8 | x8 | x8 | x8 | x8 |[M:7/8] x7 |[M:1/4] x2 |[M:4/4] x8 | %11
 F,2 z2 z2 [D,B,][C,A,] | x8 | x8 | x8 | x8 |[M:9/8] x9 |[M:3/4] x6 |] %18

